; generated by PrusaSlicer 2.7.0+win64 on 2024-05-17 at 10:10:04 UTC

; 

; external perimeters extrusion width = 0.42mm
; perimeters extrusion width = 0.44mm
; infill extrusion width = 0.44mm
; solid infill extrusion width = 0.44mm
; top infill extrusion width = 0.40mm
; first layer extrusion width = 0.42mm

M201 X500 Y500 Z100 E5000 ; sets maximum accelerations, mm/sec^2
M203 X500 Y500 Z10 E60 ; sets maximum feedrates, mm / sec
M204 S500 T1000 ; sets acceleration (S) and retract acceleration (R), mm/sec^2
M205 X8.00 Y8.00 Z0.40 E5.00 ; sets the jerk limits, mm/sec
M205 S0 T0 ; sets the minimum extruding and travel feed rate, mm/sec

; printing object Loop.stl id:0 copy 0
; stop printing object Loop.stl id:0 copy 0

;TYPE:Custom
G90 ; use absolute coordinates
M83 ; extruder relative mode
M104 S150 ; set temporary nozzle temp to prevent oozing during homing
M140 S60 ; set final bed temp
G4 S30 ; allow partial nozzle warmup
G28 ; home all axis
G1 Z50 F240
G1 X2.0 Y10 F3000
M104 S210 ; set final nozzle temp
M190 S60 ; wait for bed temp to stabilize
M109 S210 ; wait for nozzle temp to stabilize
G1 Z0.28 F240
G92 E0
G1 X2.0 Y140 E10 F1500 ; prime the nozzle
G1 X2.3 Y140 F5000
G92 E0
G1 X2.3 Y10 E10 F1200 ; prime the nozzle
G92 E0
G21 ; set units to millimeters
G90 ; use absolute coordinates
M83 ; use relative distances for extrusion
; Filament gcode
M107
;LAYER_CHANGE
;Z:0.2
;HEIGHT:0.2
;BEFORE_LAYER_CHANGE
G92 E0
;0.2


G1 E-5 F3600
G1 Z.2 F9000
;AFTER_LAYER_CHANGE
;0.2
G1 X107.303 Y107.145
G1 Z.2
G1 E5 F2400
M204 S500
;TYPE:Skirt/Brim
;WIDTH:0.42
G1 F900
G1 X108.088 Y106.442 E.03304
G1 X109.037 Y105.742 E.03697
G1 X110.051 Y105.142 E.03694
G1 X111.122 Y104.646 E.03701
G1 X112.236 Y104.26 E.03697
G1 X113.384 Y103.989 E.03698
G1 X114.553 Y103.835 E.03697
G1 X116.642 Y103.852 E.0655
G1 X117.808 Y104.026 E.03696
G1 X118.951 Y104.317 E.03698
G1 X120.059 Y104.721 E.03698
G1 X121.01 Y105.175 E.03304
G1 X122.021 Y105.781 E.03696
G1 X122.966 Y106.487 E.03699
G1 X123.835 Y107.284 E.03697
G1 X124.619 Y108.165 E.03698
G1 X125.311 Y109.12 E.03698
G1 X125.903 Y110.139 E.03695
G1 X126.39 Y111.213 E.03697
G1 X126.766 Y112.331 E.03698
G1 X127.019 Y113.433 E.03545
G1 X127.203 Y115.563 E.06703
G1 X127.137 Y116.74 E.03696
G1 X126.979 Y117.782 E.03304
G1 X126.691 Y118.925 E.03696
G1 X126.289 Y120.034 E.03699
G1 X125.778 Y121.097 E.03698
G1 X125.163 Y122.103 E.03697
G1 X123.835 Y123.716 E.06551
G1 X122.966 Y124.513 E.03697
G1 X122.021 Y125.219 E.03699
G1 X121.121 Y125.765 E.03301
G1 X120.059 Y126.279 E.03699
G1 X118.951 Y126.683 E.03698
G1 X117.808 Y126.974 E.03698
G1 X116.642 Y127.148 E.03696
G1 X115.464 Y127.204 E.03698
G1 X114.287 Y127.141 E.03696
G1 X113.121 Y126.96 E.037
G1 X111.98 Y126.662 E.03698
G1 X110.051 Y125.858 E.06553
G1 X109.037 Y125.258 E.03694
G1 X108.088 Y124.558 E.03697
G1 X107.214 Y123.766 E.03698
G1 X106.504 Y122.988 E.03302
G1 X105.796 Y122.044 E.037
G1 X105.187 Y121.035 E.03695
G1 X104.682 Y119.969 E.03698
G1 X104.288 Y118.858 E.03696
G1 X104.007 Y117.712 E.037
G1 X103.842 Y116.545 E.03695
G1 X103.796 Y115.366 E.03699
G1 X103.869 Y114.189 E.03697
G1 X104.06 Y113.026 E.03695
G1 X104.367 Y111.887 E.03699
G1 X105.187 Y109.965 E.06552
G1 X105.796 Y108.956 E.03695
G1 X106.504 Y108.012 E.037
G1 X107.263 Y107.189 E.0351
G1 X107.54 Y107.444 F9000
G1 F900
G1 X107.564 Y107.417 E.00113
G1 X108.33 Y106.731 E.03224
G1 X109.249 Y106.054 E.03579
G1 X110.231 Y105.473 E.03578
G1 X111.267 Y104.994 E.03579
G1 X112.345 Y104.621 E.03577
G1 X113.456 Y104.359 E.03579
G1 X114.587 Y104.21 E.03577
G1 X116.601 Y104.227 E.06315
G1 X117.73 Y104.395 E.03579
G1 X118.836 Y104.676 E.03578
G1 X119.908 Y105.067 E.03578
G1 X120.836 Y105.509 E.03223
G1 X121.814 Y106.097 E.03578
G1 X122.728 Y106.78 E.03578
G1 X123.569 Y107.552 E.03579
G1 X124.328 Y108.404 E.03578
G1 X124.997 Y109.329 E.03579
G1 X125.57 Y110.316 E.03578
G1 X126.041 Y111.355 E.03577
G1 X126.404 Y112.437 E.03578
G1 X126.648 Y113.502 E.03426
G1 X126.826 Y115.557 E.06467
G1 X126.763 Y116.696 E.03577
G1 X126.608 Y117.713 E.03226
G1 X126.329 Y118.819 E.03576
G1 X125.94 Y119.892 E.03579
G1 X125.445 Y120.92 E.03577
G1 X124.849 Y121.894 E.0358
G1 X123.569 Y123.448 E.06313
G1 X122.815 Y124.147 E.03224
G1 X121.908 Y124.839 E.03577
G1 X120.936 Y125.437 E.03578
G1 X119.908 Y125.933 E.03579
G1 X118.836 Y126.324 E.03578
G1 X117.73 Y126.605 E.03578
G1 X116.601 Y126.773 E.03579
G1 X115.461 Y126.827 E.03578
G1 X113.456 Y126.641 E.06314
G1 X112.345 Y126.379 E.03579
G1 X111.267 Y126.006 E.03577
G1 X110.231 Y125.527 E.03579
G1 X109.249 Y124.946 E.03578
G1 X108.33 Y124.269 E.03579
G1 X107.484 Y123.503 E.03578
G1 X106.791 Y122.743 E.03225
G1 X106.107 Y121.83 E.03577
G1 X105.517 Y120.853 E.03579
G1 X105.029 Y119.821 E.03579
G1 X104.648 Y118.745 E.03579
G1 X104.376 Y117.637 E.03577
G1 X104.218 Y116.507 E.03578
G1 X104.173 Y115.366 E.0358
G1 X104.244 Y114.227 E.03578
G1 X104.43 Y113.101 E.03578
G1 X104.727 Y111.999 E.03579
G1 X105.517 Y110.147 E.06313
G1 X106.107 Y109.17 E.03579
G1 X106.791 Y108.257 E.03577
G1 X107.499 Y107.488 E.03277
; printing object Loop.stl id:0 copy 0
G1 E-3.5 F3600
;WIPE_START
G1 F7200
G1 X107.54 Y107.444 E-.02857
G1 X107.564 Y107.417 E-.01716
G1 X108.33 Y106.731 E-.48843
G1 X109.249 Y106.054 E-.54218
G1 X110.016 Y105.6 E-.42366
;WIPE_END
G1 X115.425 Y123.187 F9000
G1 E5 F2400
;TYPE:External perimeter
;WIDTH:0.421038
G1 F900
G1 X114.652 Y123.141 E.02435
;WIDTH:0.42396
G1 X113.888 Y123.015 E.02453
G1 X113.14 Y122.815 E.02453
;WIDTH:0.423364
G1 X112.416 Y122.54 E.0245
;WIDTH:0.42261
G1 X111.723 Y122.195 E.02444
;WIDTH:0.4217
G1 X111.068 Y121.781 E.02441
;WIDTH:0.420711
G1 X110.448 Y121.295 E.02475
;WIDTH:0.422989
G1 X109.933 Y120.8 E.02257
G1 X109.499 Y120.3 E.02092
;WIDTH:0.417841
G1 X109.022 Y119.632 E.02559
;WIDTH:0.417364
G1 X108.642 Y118.966 E.02387
;WIDTH:0.420689
G1 X108.375 Y118.388 E.02
G1 X108.116 Y117.638 E.02492
;WIDTH:0.419818
G1 X107.939 Y116.891 E.02406
;WIDTH:0.423098
G1 X107.84 Y116.135 E.0241
G1 X107.815 Y115.361 E.02448
;WIDTH:0.422304
G1 X107.867 Y114.589 E.02441
;WIDTH:0.421409
G1 X107.992 Y113.847 E.02368
;WIDTH:0.419536
G1 X108.132 Y113.306 E.0175
G1 X108.407 Y112.539 E.02552
;WIDTH:0.423134
G1 X108.712 Y111.893 E.02259
G1 X109.109 Y111.229 E.02446
;WIDTH:0.42234
G1 X109.571 Y110.607 E.02444
;WIDTH:0.421378
G1 X110.093 Y110.035 E.02437
;WIDTH:0.42057
G1 X110.671 Y109.518 E.02435
;WIDTH:0.423553
G1 X111.298 Y109.064 E.0245
G1 X111.967 Y108.674 E.02451
;WIDTH:0.422849
G1 X112.672 Y108.353 E.02447
;WIDTH:0.422069
G1 X113.405 Y108.104 E.02441
;WIDTH:0.424482
G1 X114.16 Y107.932 E.02457
G1 X114.928 Y107.835 E.02456
;WIDTH:0.423698
G1 X115.656 Y107.815 E.02306
;WIDTH:0.422913
G1 X116.216 Y107.847 E.01772
G1 X116.985 Y107.959 E.02455
;WIDTH:0.42205
G1 X117.736 Y108.146 E.0244
;WIDTH:0.421038
G1 X118.465 Y108.407 E.02434
;WIDTH:0.423962
G1 X119.163 Y108.744 E.02456
G1 X119.824 Y109.146 E.02451
;WIDTH:0.423332
G1 X120.442 Y109.614 E.02452
;WIDTH:0.422581
G1 X121.009 Y110.141 E.02444
;WIDTH:0.421698
G1 X121.521 Y110.722 E.02439
;WIDTH:0.420687
G1 X121.978 Y111.36 E.02465
;WIDTH:0.419847
G1 X122.259 Y111.842 E.01749
;WIDTH:0.418803
G1 X122.609 Y112.585 E.02567
;WIDTH:0.417834
G1 X122.879 Y113.361 E.02561
;WIDTH:0.41703
G1 X123.064 Y114.161 E.02554
;WIDTH:0.423789
G1 X123.147 Y114.736 E.0184
G1 X123.163 Y114.969 E.0074
;WIDTH:0.419598
G1 X123.187 Y115.523 E.01737
;WIDTH:0.423763
G1 X123.145 Y116.283 E.0241
G1 X123.028 Y117.048 E.02451
;WIDTH:0.4231
G1 X122.834 Y117.798 E.02449
;WIDTH:0.422304
G1 X122.566 Y118.525 E.02444
;WIDTH:0.421537
G1 X122.233 Y119.196 E.02358
;WIDTH:0.41957
G1 X121.95 Y119.681 E.01759
G1 X121.466 Y120.344 E.02571
;WIDTH:0.418463
G1 X120.913 Y120.952 E.02566
;WIDTH:0.417544
G1 X120.3 Y121.498 E.02557
;WIDTH:0.416791
G1 X119.632 Y121.976 E.02554
;WIDTH:0.416203
G1 X118.923 Y122.376 E.02527
;WIDTH:0.419165
G1 X118.414 Y122.613 E.01757
G1 X117.639 Y122.881 E.02565
;WIDTH:0.418445
G1 X116.892 Y123.058 E.02397
;WIDTH:0.422009
G1 X116.199 Y123.154 E.02205
G1 X115.485 Y123.184 E.02253
G1 X115.51 Y122.81 F9000
;WIDTH:0.419179
G1 F900
G1 X114.728 Y122.77 E.0245
G1 X114.208 Y122.694 E.01644
;WIDTH:0.416225
G1 X113.45 Y122.516 E.02417
;WIDTH:0.416824
G1 X112.712 Y122.257 E.02432
;WIDTH:0.417551
G1 X112.005 Y121.92 E.0244
;WIDTH:0.418488
G1 X111.339 Y121.51 E.02442
;WIDTH:0.419572
G1 X110.72 Y121.032 E.02449
G1 X110.336 Y120.673 E.01646
;WIDTH:0.421498
G1 X109.854 Y120.141 E.0226
;WIDTH:0.42235
G1 X109.416 Y119.547 E.02328
G1 X109.04 Y118.915 E.0232
;WIDTH:0.422391
G1 X108.749 Y118.304 E.02135
;WIDTH:0.419562
G1 X108.488 Y117.569 E.02443
;WIDTH:0.419712
G1 X108.316 Y116.854 E.02304
G1 X108.233 Y116.288 E.01792
;WIDTH:0.417025
G1 X108.19 Y115.51 E.02424
;WIDTH:0.417838
G1 X108.231 Y114.729 E.02438
;WIDTH:0.41981
G1 X108.353 Y113.956 E.02452
G1 X108.483 Y113.447 E.01646
;WIDTH:0.420693
G1 X108.732 Y112.737 E.02363
G1 X108.961 Y112.234 E.01736
;WIDTH:0.417062
G1 X109.345 Y111.557 E.02421
;WIDTH:0.417839
G1 X109.802 Y110.921 E.02441
;WIDTH:0.418804
G1 X110.323 Y110.338 E.02444
;WIDTH:0.419093
G1 X110.868 Y109.844 E.02301
G1 X111.325 Y109.5 E.01789
;WIDTH:0.416577
G1 X111.988 Y109.09 E.02422
;WIDTH:0.417323
G1 X112.693 Y108.751 E.02435
;WIDTH:0.418243
G1 X113.43 Y108.489 E.02441
G1 X113.939 Y108.36 E.01639
;WIDTH:0.415762
G1 X114.708 Y108.234 E.02416
;WIDTH:0.416566
G1 X115.442 Y108.192 E.02284
;WIDTH:0.417799
G1 X116.014 Y108.208 E.01784
G1 X116.787 Y108.305 E.02428
;WIDTH:0.418145
G1 X117.549 Y108.483 E.02441
;WIDTH:0.419172
G1 X118.288 Y108.742 E.0245
G1 X118.765 Y108.961 E.01642
;WIDTH:0.416204
G1 X119.443 Y109.346 E.0242
;WIDTH:0.416791
G1 X120.078 Y109.803 E.02432
;WIDTH:0.417545
G1 X120.661 Y110.324 E.02436
;WIDTH:0.418464
G1 X121.185 Y110.905 E.02443
;WIDTH:0.419566
G1 X121.644 Y111.539 E.02451
;WIDTH:0.420326
G1 X121.902 Y111.972 E.01582
;WIDTH:0.421375
G1 X122.225 Y112.64 E.02335
;WIDTH:0.422306
G1 X122.477 Y113.33 E.02317
;WIDTH:0.423106
G1 X122.659 Y114.043 E.02326
;WIDTH:0.423789
G1 X122.768 Y114.77 E.02328
G1 X122.81 Y115.493 E.02294
;WIDTH:0.419599
G1 X122.79 Y116.015 E.01636
;WIDTH:0.416388
G1 X122.694 Y116.788 E.02419
;WIDTH:0.417027
G1 X122.515 Y117.55 E.02435
;WIDTH:0.417836
G1 X122.257 Y118.288 E.02437
;WIDTH:0.42391
G1 X122.01 Y118.812 E.01835
G1 X121.653 Y119.447 E.02308
;WIDTH:0.420687
G1 X121.215 Y120.058 E.02361
;WIDTH:0.421698
G1 X120.726 Y120.608 E.02318
;WIDTH:0.422581
G1 X120.186 Y121.106 E.02319
;WIDTH:0.423333
G1 X119.598 Y121.547 E.02325
;WIDTH:0.423961
G1 X118.97 Y121.928 E.02327
G1 X118.306 Y122.251 E.0234
;WIDTH:0.421065
G1 X117.61 Y122.498 E.02322
;WIDTH:0.421173
G1 X116.895 Y122.674 E.02316
G1 X116.288 Y122.767 E.01931
;WIDTH:0.418139
G1 X115.569 Y122.807 E.02247
; stop printing object Loop.stl id:0 copy 0
;LAYER_CHANGE
;Z:0.4
;HEIGHT:0.2
;BEFORE_LAYER_CHANGE
G92 E0
;0.4


G1 E-3.5 F3600
;WIPE_START
G1 F7200
G1 X115.51 Y122.81 E-.02806
G1 X114.728 Y122.77 E-.37194
G1 X114.208 Y122.694 E-.24962
;WIPE_END
G1 E-.85038 F3600
G1 Z.4 F9000
;AFTER_LAYER_CHANGE
;0.4
M104 S205 ; set temperature
G1 X113.535 Y127.024
G1 E5 F2400
;TYPE:Skirt/Brim
;WIDTH:0.42
G1 F900
G1 X113.121 Y126.96 E.01313
G1 X111.98 Y126.662 E.03698
G1 X110.051 Y125.858 E.06553
G1 X109.037 Y125.258 E.03694
G1 X108.088 Y124.558 E.03697
G1 X107.214 Y123.766 E.03698
G1 X106.504 Y122.988 E.03302
G1 X105.796 Y122.044 E.037
G1 X105.187 Y121.035 E.03695
G1 X104.682 Y119.969 E.03698
G1 X104.288 Y118.858 E.03696
G1 X104.007 Y117.712 E.037
G1 X103.842 Y116.545 E.03695
G1 X103.796 Y115.366 E.03699
G1 X103.869 Y114.189 E.03697
G1 X104.06 Y113.026 E.03695
G1 X104.367 Y111.887 E.03699
G1 X105.187 Y109.965 E.06552
G1 X105.796 Y108.956 E.03695
G1 X106.504 Y108.012 E.037
G1 X107.303 Y107.145 E.03697
G1 X108.088 Y106.442 E.03304
G1 X109.037 Y105.742 E.03697
G1 X110.051 Y105.142 E.03694
G1 X111.122 Y104.646 E.03701
G1 X112.236 Y104.26 E.03697
G1 X113.384 Y103.989 E.03698
G1 X114.553 Y103.835 E.03697
G1 X116.642 Y103.852 E.0655
G1 X117.808 Y104.026 E.03696
G1 X118.951 Y104.317 E.03698
G1 X120.059 Y104.721 E.03698
G1 X121.01 Y105.175 E.03304
G1 X122.021 Y105.781 E.03696
G1 X122.966 Y106.487 E.03699
G1 X123.835 Y107.284 E.03697
G1 X124.619 Y108.165 E.03698
G1 X125.311 Y109.12 E.03698
G1 X125.903 Y110.139 E.03695
G1 X126.39 Y111.213 E.03697
G1 X126.766 Y112.331 E.03698
G1 X127.019 Y113.433 E.03545
G1 X127.203 Y115.563 E.06703
G1 X127.137 Y116.74 E.03696
G1 X126.979 Y117.782 E.03304
G1 X126.691 Y118.925 E.03696
G1 X126.289 Y120.034 E.03699
G1 X125.778 Y121.097 E.03698
G1 X125.163 Y122.103 E.03697
G1 X123.835 Y123.716 E.06551
G1 X122.966 Y124.513 E.03697
G1 X122.021 Y125.219 E.03699
G1 X121.121 Y125.765 E.03301
G1 X120.059 Y126.279 E.03699
G1 X118.951 Y126.683 E.03698
G1 X117.808 Y126.974 E.03698
G1 X116.642 Y127.148 E.03696
G1 X115.464 Y127.204 E.03698
G1 X114.287 Y127.141 E.03696
G1 X113.594 Y127.033 E.02199
G1 X113.629 Y126.657 F9000
G1 F900
G1 X113.456 Y126.641 E.00545
G1 X112.345 Y126.379 E.03579
G1 X111.267 Y126.006 E.03577
G1 X110.231 Y125.527 E.03579
G1 X109.249 Y124.946 E.03578
G1 X108.33 Y124.269 E.03579
G1 X107.484 Y123.503 E.03578
G1 X106.791 Y122.743 E.03225
G1 X106.107 Y121.83 E.03577
G1 X105.517 Y120.853 E.03579
G1 X105.029 Y119.821 E.03579
G1 X104.648 Y118.745 E.03579
G1 X104.376 Y117.637 E.03577
G1 X104.218 Y116.507 E.03578
G1 X104.173 Y115.366 E.0358
G1 X104.244 Y114.227 E.03578
G1 X104.43 Y113.101 E.03578
G1 X104.727 Y111.999 E.03579
G1 X105.517 Y110.147 E.06313
G1 X106.107 Y109.17 E.03579
G1 X106.791 Y108.257 E.03577
G1 X107.564 Y107.417 E.03579
G1 X108.33 Y106.731 E.03224
G1 X109.249 Y106.054 E.03579
G1 X110.231 Y105.473 E.03578
G1 X111.267 Y104.994 E.03579
G1 X112.345 Y104.621 E.03577
G1 X113.456 Y104.359 E.03579
G1 X114.587 Y104.21 E.03577
G1 X116.601 Y104.227 E.06315
G1 X117.73 Y104.395 E.03579
G1 X118.836 Y104.676 E.03578
G1 X119.908 Y105.067 E.03578
G1 X120.836 Y105.509 E.03223
G1 X121.814 Y106.097 E.03578
G1 X122.728 Y106.78 E.03578
G1 X123.569 Y107.552 E.03579
G1 X124.328 Y108.404 E.03578
G1 X124.997 Y109.329 E.03579
G1 X125.57 Y110.316 E.03578
G1 X126.041 Y111.355 E.03577
G1 X126.404 Y112.437 E.03578
G1 X126.648 Y113.502 E.03426
G1 X126.826 Y115.557 E.06467
G1 X126.763 Y116.696 E.03577
G1 X126.608 Y117.713 E.03226
G1 X126.329 Y118.819 E.03576
G1 X125.94 Y119.892 E.03579
G1 X125.445 Y120.92 E.03577
G1 X124.849 Y121.894 E.0358
G1 X123.569 Y123.448 E.06313
G1 X122.815 Y124.147 E.03224
G1 X121.908 Y124.839 E.03577
G1 X120.936 Y125.437 E.03578
G1 X119.908 Y125.933 E.03579
G1 X118.836 Y126.324 E.03578
G1 X117.73 Y126.605 E.03578
G1 X116.601 Y126.773 E.03579
G1 X115.461 Y126.827 E.03578
G1 X113.689 Y126.662 E.0558
; printing object Loop.stl id:0 copy 0
G1 E-3.5 F3600
;WIPE_START
G1 F7200
G1 X113.629 Y126.657 E-.0286
G1 X113.456 Y126.641 E-.08253
G1 X112.345 Y126.379 E-.5422
G1 X111.267 Y126.006 E-.54184
G1 X110.684 Y125.737 E-.30483
;WIPE_END
G1 X115.757 Y123.203 F9000
G1 E5 F2400
;TYPE:External perimeter
;WIDTH:0.467187
G1 F900
G1 X115.079 Y123.195 E.02392
G1 X114.377 Y123.125 E.02489
;WIDTH:0.467039
G1 X113.613 Y122.973 E.02747
;WIDTH:0.476122
G1 X113.131 Y122.838 E.01803
G1 X112.404 Y122.563 E.028
G1 X111.709 Y122.215 E.028
G1 X111.053 Y121.8 E.02796
;WIDTH:0.475975
G1 X110.44 Y121.322 E.02799
;WIDTH:0.475683
G1 X109.981 Y120.885 E.02281
G1 X109.54 Y120.395 E.02372
;WIDTH:0.475042
G1 X109.077 Y119.769 E.02798
;WIDTH:0.476173
G1 X108.68 Y119.1 E.02802
G1 X108.353 Y118.396 E.02796
;WIDTH:0.475973
G1 X108.097 Y117.662 E.02799
;WIDTH:0.475627
G1 X107.917 Y116.906 E.02796
;WIDTH:0.475132
G1 X107.813 Y116.136 E.02792
;WIDTH:0.476223
G1 X107.79 Y115.36 E.02797
G1 X107.843 Y114.584 E.02802
;WIDTH:0.476122
G1 X107.974 Y113.818 E.02799
;WIDTH:0.475998
G1 X108.106 Y113.302 E.01918
;WIDTH:0.475132
G1 X108.361 Y112.584 E.02738
G1 X108.69 Y111.88 E.02793
;WIDTH:0.474489
G1 X109.088 Y111.213 E.02787
;WIDTH:0.473696
G1 X109.552 Y110.589 E.02785
;WIDTH:0.475874
G1 X110.077 Y110.017 E.02795
G1 X110.657 Y109.499 E.028
;WIDTH:0.475478
G1 X111.285 Y109.042 E.02794
;WIDTH:0.474933
G1 X111.956 Y108.65 E.02792
;WIDTH:0.476205
G1 X112.664 Y108.329 E.02801
